assets/symbols/mulberry/every.svg

<svg height="850.394" viewBox="0 0 850.394 850.394" width="850.394" xmlns="http://www.w3.org/2000/svg"><path d="m680.61 180.96v261.27m-76.41-85.42 76.69 87.09 76.67-87.23m-332.67-175.71v261.27m-76.42-85.42 76.7 87.09 76.67-87.23m-339.25-175.71v261.27m-76.41-85.42 76.69 87.09 76.68-87.23" fill="none" stroke="#231f20" stroke-width="28"/><path d="m0 0h850.394v850.394h-850.394z" fill="none"/><path d="m82.511 544.959h162.344v159.105h-162.344z" fill="none"/><g fill="#5668af"><circle cx="244.854" cy="576.78" r="14.292"/><circle cx="244.854" cy="608.602" r="14.292"/><circle cx="244.854" cy="640.423" r="14.292"/><circle cx="244.854" cy="672.244" r="14.292"/><circle cx="212.386" cy="704.064" r="14.292"/><circle cx="179.917" cy="704.064" r="14.292"/><circle cx="147.447" cy="704.064" r="14.292"/><circle cx="114.979" cy="704.064" r="14.292"/><circle cx="82.511" cy="672.243" r="14.292"/><circle cx="82.511" cy="640.422" r="14.292"/><circle cx="82.511" cy="608.601" r="14.292"/><circle cx="82.511" cy="576.779" r="14.292"/><circle cx="114.979" cy="544.959" r="14.292"/><circle cx="147.448" cy="544.959" r="14.292"/><circle cx="179.918" cy="544.959" r="14.292"/><circle cx="212.387" cy="544.959" r="14.292"/><circle cx="244.854" cy="704.064" r="14.292"/><circle cx="82.511" cy="704.064" r="14.292"/><circle cx="82.512" cy="544.959" r="14.292"/><circle cx="244.854" cy="544.959" r="14.292"/></g><path d="m343.011 546.834h162.344v159.105h-162.344z" fill="none"/><circle cx="505.354" cy="578.655" fill="#5668af" r="14.292"/><circle cx="505.354" cy="610.477" fill="#5668af" r="14.292"/><circle cx="505.354" cy="642.298" fill="#5668af" r="14.292"/><circle cx="505.354" cy="674.119" fill="#5668af" r="14.292"/><circle cx="472.886" cy="705.939" fill="#5668af" r="14.292"/><circle cx="440.417" cy="705.939" fill="#5668af" r="14.292"/><circle cx="407.947" cy="705.939" fill="#5668af" r="14.292"/><circle cx="375.479" cy="705.939" fill="#5668af" r="14.292"/><circle cx="343.011" cy="674.118" fill="#5668af" r="14.292"/><circle cx="343.011" cy="642.297" fill="#5668af" r="14.292"/><circle cx="343.011" cy="610.476" fill="#5668af" r="14.292"/><circle cx="343.011" cy="578.654" fill="#5668af" r="14.292"/><circle cx="375.479" cy="546.834" fill="#5668af" r="14.292"/><circle cx="407.948" cy="546.834" fill="#5668af" r="14.292"/><circle cx="440.418" cy="546.834" fill="#5668af" r="14.292"/><circle cx="472.887" cy="546.834" fill="#5668af" r="14.292"/><circle cx="505.354" cy="705.939" fill="#5668af" r="14.292"/><circle cx="343.011" cy="705.939" fill="#5668af" r="14.292"/><circle cx="343.012" cy="546.834" fill="#5668af" r="14.292"/><circle cx="505.354" cy="546.834" fill="#5668af" r="14.292"/><path d="m600.511 542.959h162.344v159.105h-162.344z" fill="none"/><circle cx="762.854" cy="574.78" fill="#5668af" r="14.292"/><circle cx="762.854" cy="606.602" fill="#5668af" r="14.292"/><circle cx="762.854" cy="638.423" fill="#5668af" r="14.292"/><circle cx="762.854" cy="670.244" fill="#5668af" r="14.292"/><circle cx="730.386" cy="702.064" fill="#5668af" r="14.292"/><circle cx="697.917" cy="702.064" fill="#5668af" r="14.292"/><circle cx="665.447" cy="702.064" fill="#5668af" r="14.292"/><circle cx="632.979" cy="702.064" fill="#5668af" r="14.292"/><circle cx="600.511" cy="670.243" fill="#5668af" r="14.292"/><circle cx="600.511" cy="638.422" fill="#5668af" r="14.292"/><circle cx="600.511" cy="606.601" fill="#5668af" r="14.292"/><circle cx="600.511" cy="574.779" fill="#5668af" r="14.292"/><circle cx="632.979" cy="542.959" fill="#5668af" r="14.292"/><circle cx="665.448" cy="542.959" fill="#5668af" r="14.292"/><circle cx="697.918" cy="542.959" fill="#5668af" r="14.292"/><circle cx="730.387" cy="542.959" fill="#5668af" r="14.292"/><circle cx="762.854" cy="702.064" fill="#5668af" r="14.292"/><circle cx="600.511" cy="702.064" fill="#5668af" r="14.292"/><circle cx="600.512" cy="542.959" fill="#5668af" r="14.292"/><circle cx="762.854" cy="542.959" fill="#5668af" r="14.292"/></svg>

<svg xmlns="http://www.w3.org/2000/svg" width="850.394" height="850.394" viewBox="0 0 850.394 850.394" overflow="visible"><g fill="none" stroke="#231f20" stroke-width="28"><path d="M680.61 180.96v261.27M604.2 356.81l76.69 87.09 76.67-87.23M424.89 180.96v261.27M348.47 356.81l76.7 87.09 76.67-87.23M162.59 180.96v261.27M86.18 356.81l76.69 87.09 76.68-87.23"/></g><path fill="none" d="M0 0h850.394v850.394H0z"/><path fill="none" d="M82.511 544.959h162.344v159.105H82.511z"/><circle cx="244.854" cy="576.78" r="14.292" fill="#5668af"/><circle cx="244.854" cy="608.602" r="14.292" fill="#5668af"/><circle cx="244.854" cy="640.423" r="14.292" fill="#5668af"/><circle cx="244.854" cy="672.244" r="14.292" fill="#5668af"/><circle cx="212.386" cy="704.064" r="14.292" fill="#5668af"/><circle cx="179.917" cy="704.064" r="14.292" fill="#5668af"/><circle cx="147.447" cy="704.064" r="14.292" fill="#5668af"/><circle cx="114.979" cy="704.064" r="14.292" fill="#5668af"/><circle cx="82.511" cy="672.243" r="14.292" fill="#5668af"/><circle cx="82.511" cy="640.422" r="14.292" fill="#5668af"/><circle cx="82.511" cy="608.601" r="14.292" fill="#5668af"/><circle cx="82.511" cy="576.779" r="14.292" fill="#5668af"/><circle cx="114.979" cy="544.959" r="14.292" fill="#5668af"/><circle cx="147.448" cy="544.959" r="14.292" fill="#5668af"/><circle cx="179.918" cy="544.959" r="14.292" fill="#5668af"/><circle cx="212.387" cy="544.959" r="14.292" fill="#5668af"/><circle cx="244.854" cy="704.064" r="14.292" fill="#5668af"/><circle cx="82.511" cy="704.064" r="14.292" fill="#5668af"/><circle cx="82.512" cy="544.959" r="14.292" fill="#5668af"/><circle cx="244.854" cy="544.959" r="14.292" fill="#5668af"/><g><path fill="none" d="M343.011 546.834h162.344v159.105H343.011z"/><circle cx="505.354" cy="578.655" r="14.292" fill="#5668af"/><circle cx="505.354" cy="610.477" r="14.292" fill="#5668af"/><circle cx="505.354" cy="642.298" r="14.292" fill="#5668af"/><circle cx="505.354" cy="674.119" r="14.292" fill="#5668af"/><circle cx="472.886" cy="705.939" r="14.292" fill="#5668af"/><circle cx="440.417" cy="705.939" r="14.292" fill="#5668af"/><circle cx="407.947" cy="705.939" r="14.292" fill="#5668af"/><circle cx="375.479" cy="705.939" r="14.292" fill="#5668af"/><circle cx="343.011" cy="674.118" r="14.292" fill="#5668af"/><circle cx="343.011" cy="642.297" r="14.292" fill="#5668af"/><circle cx="343.011" cy="610.476" r="14.292" fill="#5668af"/><circle cx="343.011" cy="578.654" r="14.292" fill="#5668af"/><circle cx="375.479" cy="546.834" r="14.292" fill="#5668af"/><circle cx="407.948" cy="546.834" r="14.292" fill="#5668af"/><circle cx="440.418" cy="546.834" r="14.292" fill="#5668af"/><circle cx="472.887" cy="546.834" r="14.292" fill="#5668af"/><circle cx="505.354" cy="705.939" r="14.292" fill="#5668af"/><circle cx="343.011" cy="705.939" r="14.292" fill="#5668af"/><circle cx="343.012" cy="546.834" r="14.292" fill="#5668af"/><circle cx="505.354" cy="546.834" r="14.292" fill="#5668af"/></g><g><path fill="none" d="M600.511 542.959h162.344v159.105H600.511z"/><circle cx="762.854" cy="574.78" r="14.292" fill="#5668af"/><circle cx="762.854" cy="606.602" r="14.292" fill="#5668af"/><circle cx="762.854" cy="638.423" r="14.292" fill="#5668af"/><circle cx="762.854" cy="670.244" r="14.292" fill="#5668af"/><circle cx="730.386" cy="702.064" r="14.292" fill="#5668af"/><circle cx="697.917" cy="702.064" r="14.292" fill="#5668af"/><circle cx="665.447" cy="702.064" r="14.292" fill="#5668af"/><circle cx="632.979" cy="702.064" r="14.292" fill="#5668af"/><circle cx="600.511" cy="670.243" r="14.292" fill="#5668af"/><circle cx="600.511" cy="638.422" r="14.292" fill="#5668af"/><circle cx="600.511" cy="606.601" r="14.292" fill="#5668af"/><circle cx="600.511" cy="574.779" r="14.292" fill="#5668af"/><circle cx="632.979" cy="542.959" r="14.292" fill="#5668af"/><circle cx="665.448" cy="542.959" r="14.292" fill="#5668af"/><circle cx="697.918" cy="542.959" r="14.292" fill="#5668af"/><circle cx="730.387" cy="542.959" r="14.292" fill="#5668af"/><circle cx="762.854" cy="702.064" r="14.292" fill="#5668af"/><circle cx="600.511" cy="702.064" r="14.292" fill="#5668af"/><circle cx="600.512" cy="542.959" r="14.292" fill="#5668af"/><circle cx="762.854" cy="542.959" r="14.292" fill="#5668af"/></g></svg>
